X: 34521
T: Ríl An Spidéil
R: reel
M: 4/4
K: Dmajor
AF F2 dFBF|ABdf eB B2|AF F2 dFAF|E2 CD EFGB|
AF F2 dFBF|ABdf eB B2|gfge fa a2|1 ABde fddB:|2 ABde fdde||
|:f2 df afde|fgaf geeg|f2 df a2 fa|ABde fdde|
f2 df afde|fgaf geef|g3 b af f2|1 e2 ag efde:|2 e2 ag ed d2||

